!!!!SEGMENT: s-uu--vok-mus-i-hs-54-10_forster-kaspar--inter-brachia-salvatoris-mei.krn
!!!cenid: 16xx:1703
!!!COM: Förster, Kaspar
!!!COM-rismID: pe30006147
!!!CDT: ~1616-1673/02/02
!!!CNT: German
!!!OTL: Inter brachia salvatoris mei
!!!PDT:
!!!AGN:
!!!YEC: Copyright 2022 Narodowy Instytut Fryderyka Chopina (https://polishscores.org)
!!!YEM: License CC-BY-4.0 (https://creativecommons.org/licenses/by/4.0)
!!!SMS-siglum: S-Uu
!!!SMS-shelfmark: Vok. mus. i hs. 54:10
!!!SMS-variant: Violone: S-Uu Vok. mus. i hs. 54:10; Continuo[2]: S-Uu Vok. mus. i hs. 54:10
!!!SMS-altvar: Violono: S-Uu Vok. mus. i hs. 54:10; [bc], Continuo[1]: S-Uu Vok. mus. i hs. 54:10
!!!SMS-shelfwork: W
!!!NIFC-rismSourceID: 190008721
!!!NIFC-rismChildID: 190008721
!!!NIFC-islandoraID: none
!!!URL-pdf-islandora:
!!!URL-scan: https://www2.musik.uu.se/duben/presentationSource1.php?Select_Dnr=831 @EN{Scan on Academica} @PL{Skany w zewnętrznej bibliotece cyfrowej}
!!!IIIF:
!!!ONB-nifc: UWAGA: poszczególne partie dostępne po kliknięciu w „browse part”. Informacje nt stron tytułowych w opisie na stronie lub na RISM.
!!!AIN: 1 soprn 4 viola 1 viole
!!!key: E-
**kern	**fba	**dynam	**kern	**fba	**dynam	**kern	**kern	**kern	**kern	**dynam	**kern	**text
*part7	*part7	*part7	*part6	*part6	*part6	*part5	*part4	*part3	*part2	*part2	*part1	*
*staff7	*staff7	*	*staff6	*staff6	*	*staff5	*staff4	*staff3	*staff2	*	*staff1	*
*I"Continuo:	*	*	*I"Violone	*	*	*I"Viola 4.	*I"Viola 3.	*I"Viola 2.	*I"Viola 1.	*	*I"Canto solo con 4 Viol.	*
*mI"Basso continuo	*	*	*	*	*	*mI"Viola IV	*mI"Viola III	*mI"Viola II	*mI"Viola I	*	*mI"Soprano	*
*I'bc	*	*	*I'vlne	*	*	*I'vla 4	*I'vla 3	*I'vla 2	*I'vla 1	*	*I'S	*
*	*	*	*Iviole	*	*	*Iviola	*Iviola	*Iviola	*Iviola	*	*Isoprn	*
*ICklav	*	*	*ICstr	*	*	*ICstr	*ICstr	*ICstr	*ICstr	*	*ICvox	*
*IGcont	*	*	*IGcont	*	*	*	*	*	*	*	*IGsolo	*
*clefF4	*	*	*clefF4	*	*	*clefC1	*clefC1	*clefC1	*clefC1	*	*clefC1	*
*	*	*	*	*	*	*mclefC3	*mclefC3	*mclefC3	*mclefC3	*	*mclefG2	*
*k[b-e-a-]	*	*	*k[b-e-a-]	*	*	*k[b-e-a-]	*k[b-e-a-]	*k[b-e-a-]	*k[a-e-b-]	*	*k[b-a-e-]	*
*	*	*	*	*	*	*	*	*	*mk[b-e-a-]	*	*mk[b-e-a-]	*
*E-:	*	*	*E-:	*	*	*E-:	*E-:	*E-:	*E-:	*	*E-:	*
*M4/4	*	*	*M4/4	*	*	*M4/4	*M4/4	*M4/4	*M4/4	*	*M4/4	*
*met(c)	*	*	*met(C|)	*	*	*met(c)	*met(c)	*met(c)	*met(c)	*	*met(c)	*
*mmet(c)	*	*	*mmet(c)	*	*	*mmet(c)	*mmet(c)	*mmet(c)	*mmet(c)	*	*mmet(c)	*
=1-	=1-	=1-	=1-	=1-	=1-	=1-	=1-	=1-	=1-	=1-	=1-	=1-
*2\right	*	*	*2\right	*	*	*	*	*	*	*	*	*
!	!	!	!	!	!	!	!	!	!	!	!LO:TX:t=P:problem=przy kluczu ee- b- a- e-	!
!LO:TX:b:i:mod= :t=Sinfonia.	!	!	!	!	!	!LO:TX:t=P:problem=przy kluczu b- ee- e- a-	!LO:TX:t=P:problem=przy klucz b- ee- e- a-	!LO:TX:t=P:problem=przy kluczu b- ee- e- a-	!LO:TX:t=P:problem=przy kluczu a- ee- e- b-	!	!LO:TX:b:i:mod= :t=Sinfonia.	!
!LO:TX:t=P:problem=przy kluczu BB- E- EE- AA- A-	!	!	!LO:TX:t=P:problem=przy kluczu BB- E- EE- AA- A-	!	!	!LO:TX:b:i:mod= :t=Sinfonia	!LO:TX:b:i:mod= :t=Sinfonia	!LO:TX:b:i:mod= :t=Sinfonia.	!LO:TX:b:i:mod= :t=Sinfonia	!	!LO:TX:a:mod= :t=18.	!
2E-\	.	.	2E-\	.	.	2B-/	2e-/	2e-/	2g/	.	00r	.
2r	.	.	2r	.	.	2r	2r	2r	2r	.	.	.
=2-	=2-	=2-	=2-	=2-	=2-	=2-	=2-	=2-	=2-	=2-	=2-	=2-
2BB-/	-	.	2BB-/	-	.	2B-/	2d-X/	2f/	2f/	.	.	.
!LO:TX:t=P:problem=kreska pseudotaktowa	!	!	!LO:TX:t=P:problem=kreska pseudotaktowa	!	!	!LO:TX:t=P:problem=kreska pseudotaktowa	!	!	!	!	!	!
2r	.	.	2r	.	.	2r	2r	2r	2r	.	.	.
=3-	=3-	=3-	=3-	=3-	=3-	=3-	=3-	=3-	=3-	=3-	=3-	=3-
2C/	.	.	2C/	.	.	2G/	2c/	2c/	2e-/	.	.	.
2r	.	.	2r	.	.	2r	2r	2r	2r	.	.	.
=4-	=4-	=4-	=4-	=4-	=4-	=4-	=4-	=4-	=4-	=4-	=4-	=4-
2D-X/	.	.	2D-X/	.	.	2A-/	2A-/	2d-X/	2d-X/	.	.	.
!LO:TX:t=P:problem=kreska pseudotaktowa	!	!	!LO:TX:t=P:problem=kreska pseudotaktowa	!	!	!LO:TX:t=P:problem=kreska pseudotaktowa	!LO:TX:t=P:problem=kreska pseudotaktowa	!	!	!	!	!
2r	.	.	2r	.	.	2r	2r	2r	2r	.	.	.
=5-	=5-	=5-	=5-	=5-	=5-	=5-	=5-	=5-	=5-	=5-	=5-	=5-
2E-\	.	.	2E-\	.	.	2G/	2B-/	2G/	2B-/	.	00r	.
!	!	!	!	!	!	!	!	!LO:TX:t=P:problem=kreska pseudotaktowa	!LO:TX:t=P:problem=kreska pseudotaktowa	!	!	!
2r	.	.	2r	.	.	2r	2r	2r	2r	.	.	.
=6-	=6-	=6-	=6-	=6-	=6-	=6-	=6-	=6-	=6-	=6-	=6-	=6-
2C/	.	.	2C/	.	.	2G/	1.c	2.c/	4r	.	.	.
.	.	.	.	.	.	.	.	.	2e-/	.	.	.
!LO:TX:t=P:problem=kreska pseudotaktowa	!	!	!LO:TX:t=P:problem=kreska pseudotaktowa	!	!	!	!	!	!	!	!	!
2AA-/	5	.	2AA-/	5	.	2c/	.	.	.	.	.	.
.	6	.	.	6	.	.	.	4c/	4f/	.	.	.
=7-	=7-	=7-	=7-	=7-	=7-	=7-	=7-	=7-	=7-	=7-	=7-	=7-
1GG	4	.	1GG	4	.	1G	.	2.dny/	2g/	.	.	.
.	3	.	.	3	.	.	2B-/	.	1B-	.	.	.
.	.	.	.	.	.	.	.	8c/L	.	.	.	.
.	.	.	.	.	.	.	.	8d/J	.	.	.	.
=8-	=8-	=8-	=8-	=8-	=8-	=8-	=8-	=8-	=8-	=8-	=8-	=8-
2C/	7	.	2C/	7	.	2G/	1c	1e-	.	.	.	.
!	!	!	!	!	!	!LO:N:acc=#	!	!	!LO:N:acc=#	!	!	!
2FF/	7 #	.	2FF/	7 #	.	2An/	.	.	2An/	.	.	.
=9-	=9-	=9-	=9-	=9-	=9-	=9-	=9-	=9-	=9-	=9-	=9-	=9-
2BB-/	.	.	2BB-/	.	.	2d/	2B-/	2d/	2B-/	.	00r	.
!LO:TX:t=P:problem=kreska pseudotaktowa	!	!	!LO:TX:t=P:problem=kreska pseudotaktowa	!	!	!	!LO:TX:t=P:problem=kreska pseudotaktowa	!	!LO:TX:t=P:problem=kreska pseudotaktowa	!	!	!
2r	.	.	2r	.	.	2r	2r	2r	2r	.	.	.
=10-	=10-	=10-	=10-	=10-	=10-	=10-	=10-	=10-	=10-	=10-	=10-	=10-
*	*	*	*	*	*	*	*	*2\right	*2\right	*	*	*
2B-\	.	.	2B-\	.	.	2B-/	2f/	2b-\	2dd\	.	.	.
2r	.	.	2r	.	.	2r	2r	2r	2r	.	.	.
=11-	=11-	=11-	=11-	=11-	=11-	=11-	=11-	=11-	=11-	=11-	=11-	=11-
2F\	.	.	2F\	.	.	2c/	2f/	2a-\	2cc\	.	.	.
!	!	!	!	!	!	!LO:TX:t=P:problem=kreska pseudotaktowa	!	!	!	!	!	!
2r	.	.	2r	.	.	2r	2r	2r	2r	.	.	.
=12-	=12-	=12-	=12-	=12-	=12-	=12-	=12-	=12-	=12-	=12-	=12-	=12-
2G\	.	.	2G\	.	.	2d/	2B-/	2g/	2b-\	.	.	.
!LO:TX:t=P:problem=kreska pseudotaktowa	!	!	!LO:TX:t=P:problem=kreska pseudotaktowa	!	!	!	!	!	!	!	!	!
2r	.	.	2r	.	.	2r	2r	2r	2r	.	.	.
=13-	=13-	=13-	=13-	=13-	=13-	=13-	=13-	=13-	=13-	=13-	=13-	=13-
2A-\	.	.	2A-\	.	.	2c/	2e-/	2e-/	2a-\	.	00r	.
!	!	!	!	!	!	!LO:TX:t=P:problem=kreska pseudotaktowa	!	!	!	!	!	!
2r	.	.	2r	.	.	2r	2r	2r	2r	.	.	.
!LO:LB:g=original	!	!	!	!	!	!	!	!LO:LB:g=original	!	!	!	!
=14-	=14-	=14-	=14-	=14-	=14-	=14-	=14-	=14-	=14-	=14-	=14-	=14-
2B-\	.	.	2B-\	.	.	2d/	2B-/	2d/	2f/	.	.	.
!	!	!	!LO:TX:t=P:problem=kreska pseudotaktowa	!	!	!	!	!	!LO:TX:t=P:problem=kreska pseudotaktowa	!	!	!
2r	.	.	2r	.	.	2r	2r	2r	2r	.	.	.
!	!	!	!	!	!	!LO:LB:g=original	!LO:LB:g=original	!	!LO:LB:g=original	!	!	!
=15-	=15-	=15-	=15-	=15-	=15-	=15-	=15-	=15-	=15-	=15-	=15-	=15-
2E-\	.	.	2E-\	.	.	2B-/	2g/	2.e-/	4r	.	.	.
.	.	.	.	.	.	.	.	.	2g/	.	.	.
2C/	5	.	2C/	5	.	2c/	2e-/	.	.	.	.	.
.	6	.	.	6	.	.	.	4e-/	4a-\	.	.	.
=16-	=16-	=16-	=16-	=16-	=16-	=16-	=16-	=16-	=16-	=16-	=16-	=16-
2BB-/	.	.	2BB-/	.	.	2d/	2dny/	2f/	2b-\	.	.	.
!	!	!	!LO:TX:t=P:problem=kreska pseudotaktowa	!	!	!	!	!	!	!	!	!
2AA-/	7	.	2AA-/	7	.	2e-/	2c/	1g\	1e-/	.	.	.
=17-	=17-	=17-	=17-	=17-	=17-	=17-	=17-	=17-	=17-	=17-	=17-	=17-
!	!	!	!	!	!	!	!	!	!	!	!LO:TX:t=P:problem=kreska pseudotaktowa	!
1BB-	6 4	.	1BB-	.	.	1B-	1B-	.	.	.	0r	.
.	5 3	.	.	.	.	.	.	2f/	2dny/	.	.	.
=18-	=18-	=18-	=18-	=18-	=18-	=18-	=18-	=18-	=18-	=18-	=18-	=18-
1EE-	.	.	1EE-	.	.	1G	1B-	1e-	1e-	.	.	.
*	*	*	*custos:E-	*	*	*	*	*	*	*	*	*
!	!	!	!LO:LB:g=original	!	!	!	!	!	!	!	!	!
=19||	=19||	=19||	=19||	=19||	=19||	=19||	=19||	=19||	=19||	=19||	=19||	=19||
!	!	!	!	!	!	!	!	!LO:TX:b:i:mod= :t=Inter brachia.	!	!	!	!
!LO:TX:b:i:mod= :t=Inter brachia	!	!	!	!	!	!LO:TX:a:mod= :t=11	!LO:TX:a:mod= :t=11	!LO:TX:a:mod= :t=11.	!	!	!	!
2E-\	.	.	2E-\	.	.	00r	00r	00r	00r	.	4r	.
.	.	.	.	.	.	.	.	.	.	.	2e-/	In-
2AA-/	5	.	2AA-/	.	.	.	.	.	.	.	.	.
.	6	.	.	.	.	.	.	.	.	.	4f/	-ter
=20-	=20-	=20-	=20-	=20-	=20-	=20-	=20-	=20-	=20-	=20-	=20-	=20-
1GG	.	.	1GG	.	.	.	.	.	.	.	4.g/	bra-
.	.	.	.	.	.	.	.	.	.	.	8g/	-chi-
!	!	!	!	!	!	!	!	!	!	!	!LO:TX:t=P:problem=kreska pseudotaktowa	!
.	.	.	.	.	.	.	.	.	.	.	2g/	-a
=21-	=21-	=21-	=21-	=21-	=21-	=21-	=21-	=21-	=21-	=21-	=21-	=21-
2E-\	.	.	2E-\	.	.	.	.	.	.	.	4r	.
*	*	*	*	*	*	*	*	*	*	*	*	*ij
!	!	!	!	!	!	!	!	!	!	!	!	!LO:SIC:o=In-
.	.	.	.	.	.	.	.	.	.	.	2g/	in-
2C/	5	.	2C/	.	.	.	.	.	.	.	.	.
.	6	.	.	.	.	.	.	.	.	.	4a-\	-ter
=22-	=22-	=22-	=22-	=22-	=22-	=22-	=22-	=22-	=22-	=22-	=22-	=22-
!LO:TX:t=P:problem=kreska pseudotaktowa	!	!	!LO:TX:t=P:problem=kreska pseudotaktowa	!	!	!	!	!	!	!	!	!
1BB-	.	.	1BB-	.	.	.	.	.	.	.	4.b-\	bra-
.	.	.	.	.	.	.	.	.	.	.	8b-\	-chi-
*	*	*	*	*	*	*	*	*	*	*	*2\right	*
!	!	!	!	!	!	!	!	!	!	!	!LO:TX:t=P:problem=kreska pseudotaktowa	!
.	.	.	.	.	.	.	.	.	.	.	2b-\	-a
*	*	*	*	*	*	*	*	*	*	*	*	*Xij
=23-	=23-	=23-	=23-	=23-	=23-	=23-	=23-	=23-	=23-	=23-	=23-	=23-
2E-\	.	.	2E-\	.	.	00r	00r	00r	00r	.	4b-\	bra-
.	.	.	.	.	.	.	.	.	.	.	8b-\	-chi-
.	.	.	.	.	.	.	.	.	.	.	8b-\	-a
!	!	!	!	!	!	!	!	!	!	!	!	!LO:SIC:o=Sal-
4C/	.	.	4C/	.	.	.	.	.	.	.	4ee-\	sal-
8Dny\L	.	.	8Dny\L	.	.	.	.	.	.	.	4dd\	-va-
8E-\J	.	.	8E-\J	.	.	.	.	.	.	.	.	.
=24-	=24-	=24-	=24-	=24-	=24-	=24-	=24-	=24-	=24-	=24-	=24-	=24-
1F	.	.	1F	.	.	.	.	.	.	.	2cc\	-to-
.	.	.	.	.	.	.	.	.	.	.	2cc\	-ris
=25-	=25-	=25-	=25-	=25-	=25-	=25-	=25-	=25-	=25-	=25-	=25-	=25-
!	!	!	!	!	!	!	!	!	!	!	!	!LO:SIC:o=Sal-
2E-\	7	.	2E-\	.	.	.	.	.	.	.	8dd\	sal-
.	.	.	.	.	.	.	.	.	.	.	8cc\	-va-
.	.	.	.	.	.	.	.	.	.	.	8ee-\	-to-
.	.	.	.	.	.	.	.	.	.	.	8dd\	-ris
!	!	!	!LO:TX:t=P:problem=kreska pseudotaktowa	!	!	!	!	!	!	!	!LO:TX:t=P:problem=kreska pseudotaktowa	!
!LO:TX:t=P:problem=kreska pseudotaktowa	!	!	!	!	!	!	!	!	!	!	!LO:LB:g=original	!
2F\	#4r	.	2F\	.	.	.	.	.	.	.	2cc\	me-
*custos:BB	*	*	*	*	*	*	*	*	*	*	*	*
!LO:LB:g=original	!	!	!	!	!	!	!	!	!	!	!	!
=26-	=26-	=26-	=26-	=26-	=26-	=26-	=26-	=26-	=26-	=26-	=26-	=26-
2BB-/	.	.	2BB-/	.	.	.	.	.	.	.	2b-\	-i
!	!	!	!	!	!	!	!	!	!	!	!	!LO:SIC:o=Sal-
2E-\	.	.	2E-\	.	.	.	.	.	.	.	8g/	sal-
.	.	.	.	.	.	.	.	.	.	.	8f/	-va-
.	.	.	.	.	.	.	.	.	.	.	8a-\	-to-
!	!	!	!	!	!	!	!	!	!	!	!LO:TX:t=P:problem=kreska pseudotaktowa	!
.	.	.	.	.	.	.	.	.	.	.	8g/	-ris
=27-	=27-	=27-	=27-	=27-	=27-	=27-	=27-	=27-	=27-	=27-	=27-	=27-
!	!	!	!	!	!	!	!	!	!	!	!	!LO:SIC:o=Sal-
2AA-/	7	.	2AA-/	.	.	0r	0r	0r	0r	.	8g/	sal-
.	.	.	.	.	.	.	.	.	.	.	8f/	-va-
.	.	.	.	.	.	.	.	.	.	.	8e-/	-to-
.	.	.	.	.	.	.	.	.	.	.	8f/	-ris
!	!	!	!LO:TX:t=P:problem=kreska pseudotaktowa	!	!	!	!	!	!	!	!LO:TX:t=P:problem=kreska pseudotaktowa	!
2BB-/	4	.	2BB-/	.	.	.	.	.	.	.	2f/	me-
.	3	.	.	.	.	.	.	.	.	.	.	.
=28-	=28-	=28-	=28-	=28-	=28-	=28-	=28-	=28-	=28-	=28-	=28-	=28-
!	!	!	!	!	!	!	!	!	!	!	!	!LO:SIC:o=-i,
4EE-/	.	.	4EE-/	.	.	.	.	.	.	.	4e-/	-i
!	!	!	!LO:TX:t=P:problem=przekreślona synkopowana wartość	!	!	!	!	!	!	!	!	!
2E-\	.	.	2E-\	.	.	.	.	.	.	.	2e-/	in-
!	!	!	!LO:TX:t=P:problem=kreska pseudotaktowa	!	!	!	!	!	!	!	!	!
4BB-/	.	.	4BB-/	.	.	.	.	.	.	.	4f/	-ter
=29-	=29-	=29-	=29-	=29-	=29-	=29-	=29-	=29-	=29-	=29-	=29-	=29-
1E-	.	.	1E-	.	.	1r	1r	1r	1r	.	4.g/	bra-
.	.	.	.	.	.	.	.	.	.	.	8g/	-chi-
.	.	.	.	.	.	.	.	.	.	.	2g/	-a
=30-	=30-	=30-	=30-	=30-	=30-	=30-	=30-	=30-	=30-	=30-	=30-	=30-
!	!	!	!	!	!	!	!	!	!LO:TX:b:i:mod= :t=Inter brachia	!	!LO:TX:a:mod= :t=7.	!
2C/	.	.	2C/	.	.	4r	4r	4r	4r	.	00r	.
!	!	!	!	!	!	!LO:TX:b:i:mod= :t=Inter brachia.	!LO:TX:b:i:mod= :t=Inter brachia	!	!	!	!	!
.	.	.	.	.	.	2c/	2g/	2e-/	2g/	.	.	.
!	!	!	!LO:TX:t=P:problem=kreska pseudotaktowa	!	!	!	!	!	!	!	!	!
2AA-/	5	.	2AA-/	.	.	.	.	.	.	.	.	.
.	6	.	.	.	.	4c/	4f/	4f/	4a-\	.	.	.
=31-	=31-	=31-	=31-	=31-	=31-	=31-	=31-	=31-	=31-	=31-	=31-	=31-
1GG	.	.	1GG	.	.	4.B-/	4.g/	4.d/	4.b-\	.	.	.
.	.	.	.	.	.	8B-/	8g/	8d/	8b-\	.	.	.
!	!	!	!	!	!	!	!LO:TX:t=P:problem=kreska pseudotaktowa	!LO:TX:t=P:problem=kreska pseudotaktowa	!LO:TX:t=P:problem=kreska pseudotaktowa	!	!	!
.	.	.	.	.	.	2B-/	2g/	2d/	2b-\	.	.	.
=32-	=32-	=32-	=32-	=32-	=32-	=32-	=32-	=32-	=32-	=32-	=32-	=32-
2G\	.	.	2G\	.	.	4r	4r	4r	4r	.	.	.
.	.	.	.	.	.	2d/	4d/	2g/	2b-\	.	.	.
!	!	!	!LO:TX:t=P:problem=kreska pseudotaktowa	!	!	!	!	!	!	!	!	!
2E-\	7	.	2E-\	.	.	.	2e-/	.	.	.	.	.
!	!	!	!	!	!	!	!	!	!LO:TX:t=P:problem=kreska pseudotaktowa	!	!	!
.	6	.	.	.	.	4c/	.	4a-\	4cc\	.	.	.
=33-	=33-	=33-	=33-	=33-	=33-	=33-	=33-	=33-	=33-	=33-	=33-	=33-
1D	6	.	1D	.	.	4.B-/	4.f/	4.b-\	4.dd\	.	.	.
.	.	.	.	.	.	8c/	8f/	8b-\	8dd\	.	.	.
!	!	!	!	!	!	!LO:TX:t=P:problem=kreska pseudotaktowa	!LO:TX:t=P:problem=kreska pseudotaktowa	!LO:TX:t=P:problem=kreska pseudotaktowa	!LO:TX:t=P:problem=kreska pseudotaktowa	!	!	!
.	.	.	.	.	.	2d/	2f/	2b-\	2dd\	.	.	.
=34-	=34-	=34-	=34-	=34-	=34-	=34-	=34-	=34-	=34-	=34-	=34-	=34-
2E-\	7	.	2E-\	.	.	4B-/	8g\L	8b-\L	8dd\L	.	0r	.
.	.	.	.	.	.	.	8g\J	8a-\	8cc\	.	.	.
.	.	.	.	.	.	4G/	16g\LL	8cc\	8ee-\	.	.	.
.	.	.	.	.	.	.	16a-\J	.	.	.	.	.
.	.	.	.	.	.	.	8b-\J	8b-\J	8dd\J	.	.	.
!	!	!	!	!	!	!	!	!LO:LB:g=original	!	!	!	!
!	!	!	!LO:TX:t=P:problem=kreska pseudotaktowa	!	!	!	!LO:TX:t=P:problem=kreska pseudotaktowa	!	!	!	!	!
2F\	#4r	.	2F\	.	.	8c/L	2f/	4b-\	2cc\	.	.	.
.	.	.	.	.	.	16d/L	.	.	.	.	.	.
.	.	.	.	.	.	16e-/JJ	.	.	.	.	.	.
!	!	!	!	!	!	!	!	!LO:TX:t=P:problem=kreska pseudotaktowa	!	!	!	!
!	!	!	!	!	!	!	!	!LO:N:acc=#	!	!	!	!
.	.	.	.	.	.	8f/L	.	4an\	.	.	.	.
!	!	!	!	!	!	!LO:TX:t=P:problem=kreska pseudotaktowa	!	!	!	!	!	!
.	.	.	.	.	.	8e-/J	.	.	.	.	.	.
*	*	*	*custos:BB-	*	*	*	*	*	*	*	*	*
!	!	!	!LO:LB:g=original	!	!	!LO:LB:g=original	!LO:LB:g=original	!	!	!	!	!
=35-	=35-	=35-	=35-	=35-	=35-	=35-	=35-	=35-	=35-	=35-	=35-	=35-
2BB-/	.	.	2BB-/	.	.	4d/	4f/	4b-\	4b-\	.	.	.
.	.	.	.	.	.	8d/L	2f/	2d/	2f/	.	.	.
.	.	.	.	.	.	8c/J	.	.	.	.	.	.
2GG/	7	.	2GG/	.	.	2B-/	.	.	.	.	.	.
.	6	.	.	.	.	.	4e-/	4e-/	4g/	.	.	.
!	!	!	!	!	!	!	!	!	!LO:LB:g=original	!	!	!
=36-	=36-	=36-	=36-	=36-	=36-	=36-	=36-	=36-	=36-	=36-	=36-	=36-
!	!	!	!LO:TX:t=P:problem=kreska pseudotaktowa	!	!	!	!	!	!	!	!	!
1FF	.	.	1FF	.	.	4.A-y/	4.f/	4.c/	4.a-\	.	1r	.
.	.	.	.	.	.	8A-/	8f/	8c/	8a-\	.	.	.
.	.	.	.	.	.	2A-/	2f/	2c/	2a-\	.	.	.
!LO:LB:g=original	!	!	!	!	!	!	!	!	!	!	!	!
=37-	=37-	=37-	=37-	=37-	=37-	=37-	=37-	=37-	=37-	=37-	=37-	=37-
2F\	.	.	2F\	.	.	0r	0r	0r	0r	.	4r	.
*	*	*	*	*	*	*	*	*	*	*	*	*ij
.	.	.	.	.	.	.	.	.	.	.	2a-\	in-
2D-X/	5	.	2D-X/	.	.	.	.	.	.	.	.	.
.	6	.	.	.	.	.	.	.	.	.	4b-\	-ter
=38-	=38-	=38-	=38-	=38-	=38-	=38-	=38-	=38-	=38-	=38-	=38-	=38-
2C/	.	.	2C/	.	.	.	.	.	.	.	4.cc\	bra-
.	.	.	.	.	.	.	.	.	.	.	8cc\	-chi-
!LO:TX:t=P:problem=kreska pseudotaktowa	!	!	!LO:TX:t=P:problem=kreska pseudotaktowa	!	!	!	!	!	!	!	!LO:TX:t=P:problem=kreska pseudotaktowa	!
2F\	.	.	2F\	.	.	.	.	.	.	.	2cc\	-a
!	!	!	!	!	!	!	!	!	!	!	!LO:LB:g=original	!
=39-	=39-	=39-	=39-	=39-	=39-	=39-	=39-	=39-	=39-	=39-	=39-	=39-
2BB-/	.	.	2BB-/	.	.	4r	4r	4r	4r	.	4r	.
.	.	.	.	.	.	4d/	2f/	2f/	2b-\	.	2dd\	in-
2GG/	7	.	2GG/	.	.	2B-/	.	.	.	.	.	.
.	6	.	.	.	.	.	4e-/	4g/	4b-\	.	4ee-\	-ter
=40-	=40-	=40-	=40-	=40-	=40-	=40-	=40-	=40-	=40-	=40-	=40-	=40-
1FF	.	.	1FF	.	.	4.f/	4.c/	4.a-y\	4.cc\	.	4.ff\	bra-
.	.	.	.	.	.	8f/	8c/	8a-\	8cc\	.	8ff\	-chi-
!	!	!	!	!	!	!	!	!	!	!	!LO:TX:t=P:problem=kreska pseudotaktowa	!
.	.	.	.	.	.	2f/	2c/	2a-\	2cc\	.	2ff\	-a
*	*	*	*	*	*	*	*	*	*	*	*	*Xij
=41-	=41-	=41-	=41-	=41-	=41-	=41-	=41-	=41-	=41-	=41-	=41-	=41-
!	!	!	!	!	!	!	!LO:TX:a:mod= :t=1.	!	!	!	!	!LO:SIC:o=Sal-
2BB-/	.	.	2BB-/	.	.	1r	1r	1r	1r	.	8dd\	sal-
.	.	.	.	.	.	.	.	.	.	.	8cc\	-va-
.	.	.	.	.	.	.	.	.	.	.	8ee-\	-to-
.	.	.	.	.	.	.	.	.	.	.	8dd\	-ris
4E-\	.	.	4E-\	.	.	.	.	.	.	.	2cc\	me-
!LO:TX:t=P:problem=kreska pseudotaktowa	!	!	!LO:TX:t=P:problem=kreska pseudotaktowa	!	!	!	!	!	!	!	!	!
4F\	.	.	4F\	.	.	.	.	.	.	.	.	.
=42-	=42-	=42-	=42-	=42-	=42-	=42-	=42-	=42-	=42-	=42-	=42-	=42-
2BB-/	.	.	2BB-/	.	.	4r	4r	4r	4r	.	2b-\	-i
.	.	.	.	.	.	2B-/	2d/	2f/	2f/	.	.	.
2GG/	7	.	2GG/	.	.	.	.	.	.	.	2r	.
!	!	!	!	!	!	!	!LO:TX:t=P:problem=kreska pseudotaktowa	!LO:TX:t=P:problem=kreska pseudotaktowa	!LO:TX:t=P:problem=kreska pseudotaktowa	!	!	!
.	6	.	.	.	.	4B-/	4e-/	4e-/	4g/	.	.	.
=43-	=43-	=43-	=43-	=43-	=43-	=43-	=43-	=43-	=43-	=43-	=43-	=43-
!	!	!	!LO:TX:t=P:problem=kreska pseudotaktowa	!	!	!	!	!	!	!	!	!
1FF	.	.	1FF	.	.	4.A-/	4.c/	4.f/	4.a-\	.	0r	.
.	.	.	.	.	.	8A-/	8c/	8f/	8a-\	.	.	.
!	!	!	!	!	!	!LO:TX:t=P:problem=kreska pseudotaktowa	!	!	!	!	!	!
.	.	.	.	.	.	2A-/	2c/	2f/	2a-\	.	.	.
=44-	=44-	=44-	=44-	=44-	=44-	=44-	=44-	=44-	=44-	=44-	=44-	=44-
!	!	!	!	!	!	!	!	!	!LO:SIC:o=(8g/L	!	!	!
2GG/	6	.	2GG/	.	.	2B-/	2e-/	8e-/L	8gL	.	.	.
!	!	!	!	!	!	!	!	!	!LO:SIC:o=8f/J)	!	!	!
.	.	.	.	.	.	.	.	8d/	8f	.	.	.
!	!	!	!	!	!	!	!	!	!LO:SIC:o=(8a-\L	!	!	!
.	.	.	.	.	.	.	.	8f/	8a-	.	.	.
!	!	!	!	!	!	!	!	!	!LO:SIC:o=8g\J)	!	!	!
.	.	.	.	.	.	.	.	8e-/J	8gJ	.	.	.
!	!	!	!	!	!	!	!	!	!LO:TX:t=P:problem=kreska pseudotaktowa	!	!	!
4AA-/	6 5	.	4AA-/	.	.	4c/	4c/	4e-/	2f/	.	.	.
!LO:TX:t=P:problem=kreska pseudotaktowa	!	!	!LO:TX:t=P:problem=kreska pseudotaktowa	!	!	!	!LO:TX:t=P:problem=kreska pseudotaktowa	!LO:TX:t=P:problem=kreska pseudotaktowa	!	!	!	!
4BB-/	.	.	4BB-/	.	.	4d/	4B-/	4d/	.	.	.	.
!	!	!	!	!	!	!	!	!LO:LB:g=original	!	!	!	!
=45-	=45-	=45-	=45-	=45-	=45-	=45-	=45-	=45-	=45-	=45-	=45-	=45-
4E-\	.	.	4E-\	.	.	4B-/	4B-/	4e-/	4e-/	.	4r	.
!	!	!	!LO:TX:t=P:problem=przekreślona synkopowana wartość	!	!	!	!	!	!	!	!	!
2E-\	.	.	2E-\	.	.	2B-/	2B-/	2e-/	2e-/	.	2e-/	in-
!	!	!	!	!	!	!LO:TX:t=P:problem=kreska pseudotaktowa	!	!	!	!	!	!
4BB-/	.	.	4BB-/	.	.	4B-/	4d/	4d/	4d/	.	4f/	-ter
!	!	!	!	!	!	!LO:LB:g=original	!LO:LB:g=original	!	!	!	!	!
=46-	=46-	=46-	=46-	=46-	=46-	=46-	=46-	=46-	=46-	=46-	=46-	=46-
!	!	!	!LO:TX:t=P:problem=kreska pseudotaktowa	!	!	!	!	!	!	!	!	!
1EE-	.	.	1EE-	.	.	4.G/	4.B-/	4.e-/	4.e-/	.	4.g/	bra-
.	.	.	.	.	.	8G/	8B-/	8e-/	8e-/	.	8g/	-chi-
!	!	!	!	!	!	!	!	!	!	!	!LO:TX:t=P:problem=kreska pseudotaktowa	!
.	.	.	.	.	.	2G/	2B-/	2e-/	2e-/	.	2g/	-a
!LO:LB:g=original	!	!	!	!	!	!	!	!	!	!	!	!
=47-	=47-	=47-	=47-	=47-	=47-	=47-	=47-	=47-	=47-	=47-	=47-	=47-
2E-\	.	.	2E-\	.	.	00r	00r	00r	00r	.	4r	.
.	.	.	.	.	.	.	.	.	.	.	4.g/	in-
2C/	5	.	2C/	.	.	.	.	.	.	.	.	.
.	.	.	.	.	.	.	.	.	.	.	8g/	-ter
.	6	.	.	.	.	.	.	.	.	.	8a-\	in-
!	!	!	!	!	!	!	!	!	!	!	!LO:TX:t=P:problem=kreska pseudotaktowa	!
.	.	.	.	.	.	.	.	.	.	.	8a-\	-ter
=48-	=48-	=48-	=48-	=48-	=48-	=48-	=48-	=48-	=48-	=48-	=48-	=48-
!	!	!	!LO:TX:t=P:problem=kreska pseudotaktowa	!	!	!	!	!	!	!	!	!
1BB-	.	.	1BB-	.	.	.	.	.	.	.	4.b-\	bra-
.	.	.	.	.	.	.	.	.	.	.	8b-\	-chi-
.	.	.	.	.	.	.	.	.	.	.	2b-\	-a
!	!	!	!	!	!	!	!	!	!	!	!LO:LB:g=original	!
=49-	=49-	=49-	=49-	=49-	=49-	=49-	=49-	=49-	=49-	=49-	=49-	=49-
!	!	!	!	!	!	!	!	!	!	!	!	!LO:SIC:o=Sal-
2G\	.	.	2G\	.	.	.	.	.	.	.	8b-\	sal-
.	.	.	.	.	.	.	.	.	.	.	8cc\	-va-
.	.	.	.	.	.	.	.	.	.	.	8dd\	-to-
.	.	.	.	.	.	.	.	.	.	.	8b-\	-ris
!	!	!	!	!	!	!	!	!	!	!	!	!LO:SIC:o=Sal-
2F\	.	.	2F\	.	.	.	.	.	.	.	8cc\	sal-
.	.	.	.	.	.	.	.	.	.	.	8dd\	-va-
.	.	.	.	.	.	.	.	.	.	.	8ee-\	-to-
!	!	!	!	!	!	!	!	!	!	!	!LO:TX:t=P:problem=kreska pseudotaktowa	!
.	.	.	.	.	.	.	.	.	.	.	8cc\	-ris
=50-	=50-	=50-	=50-	=50-	=50-	=50-	=50-	=50-	=50-	=50-	=50-	=50-
2E-\	7	.	2E-\	.	.	.	.	.	.	.	(8dd\L	Je-
.	.	.	.	.	.	.	.	.	.	.	8cc\J)	.
!	!	!	!	!	!	!	!	!	!	!	!	!LO:SIC:o=-su(m)
.	.	.	.	.	.	.	.	.	.	.	(8ee-\L	-sum
.	.	.	.	.	.	.	.	.	.	.	8dd\J)	.
!LO:TX:t=P:problem=kreska pseudotaktowa	!	!	!LO:TX:t=P:problem=kreska pseudotaktowa	!	!	!	!	!	!	!	!LO:TX:t=P:problem=kreska pseudotaktowa	!
2F\	#4r	.	2F\	.	.	.	.	.	.	.	2cc\	Chris-
*	*	*	*custos:BB-	*	*	*	*	*	*	*	*	*
!	!	!	!LO:LB:g=original	!	!	!	!	!	!LO:LB:g=original	!	!	!
=51-	=51-	=51-	=51-	=51-	=51-	=51-	=51-	=51-	=51-	=51-	=51-	=51-
!	!	!	!	!	!	!	!	!	!	!	!	!LO:SIC:o=-t(um)
2BB-/	.	.	2BB-/	.	.	4r	4r	4r	4r	.	4b-\	-tum
.	.	.	.	.	.	2d/	2f/	2b-\	2dd\	.	2f/	in-
2GG/	7	.	2GG/	.	.	.	.	.	.	.	.	.
.	6	.	.	.	.	4B-/	4e-/	4b-\	4ee-\	.	4g/	-ter
=52-	=52-	=52-	=52-	=52-	=52-	=52-	=52-	=52-	=52-	=52-	=52-	=52-
1FF	.	.	1FF	.	.	4.c/	4.f/	4.a-\	4.cc\	.	4.a-\	bra-
.	.	.	.	.	.	8c/	8f/	8a-\	8cc\	.	8a-\	-chi-
!	!	!	!	!	!	!	!	!LO:TX:t=P:problem=kreska pseudotaktowa	!LO:TX:t=P:problem=kreska pseudotaktowa	!	!	!
.	.	.	.	.	.	2c/	2f/	2a-\	2cc\	.	2a-\	-a
=53-	=53-	=53-	=53-	=53-	=53-	=53-	=53-	=53-	=53-	=53-	=53-	=53-
2BB-/	.	.	2BB-/	.	.	2B-/	2f/	8b-\L	8dd\L	.	1r	.
.	.	.	.	.	.	.	.	8a-\	8cc\	.	.	.
.	.	.	.	.	.	.	.	8cc\	8ee-\	.	.	.
.	.	.	.	.	.	.	.	8b-\J	8dd\J	.	.	.
!LO:TX:t=P:problem=kreska pseudotaktowa	!	!	!LO:TX:t=P:problem=kreska pseudotaktowa	!	!	!	!	!	!	!	!	!
2F\	.	.	2F\	.	.	2c/	2f/	4b-\	2cc\	.	.	.
!	!	!	!	!	!	!	!	!LO:N:acc=#	!	!	!	!
.	.	.	.	.	.	.	.	4an\	.	.	.	.
=54-	=54-	=54-	=54-	=54-	=54-	=54-	=54-	=54-	=54-	=54-	=54-	=54-
2BB-/	.	.	2BB-/	.	.	4d/	4f/	4b-\	4b-\	.	4r	.
*	*	*	*	*	*	*	*	*	*	*	*	*ij
.	.	.	.	.	.	2d/	2f/	2f/	2b-\	.	2d/	in-
2GG/	.	.	2GG/	.	.	.	.	.	.	.	.	.
!	!	!	!	!	!	!	!LO:TX:t=P:problem=kreska pseudotaktowa	!LO:TX:t=P:problem=kreska pseudotaktowa	!LO:TX:t=P:problem=kreska pseudotaktowa	!	!	!
.	.	.	.	.	.	4B-/	4e-/	4g/	4b-\	.	4e-/	-ter
=55-	=55-	=55-	=55-	=55-	=55-	=55-	=55-	=55-	=55-	=55-	=55-	=55-
1FF	.	.	1FF	.	.	4.c/	4c/	4.a-y\	4.a-\	.	4.f/	bra-
.	.	.	.	.	.	.	4f/	.	.	.	.	.
.	.	.	.	.	.	8c/	.	8a-\	8a-\	.	8f/	-chi-
.	.	.	.	.	.	2c/	2f/	2a-\	2a-\	.	2f/	-a
*	*	*	*	*	*	*	*	*	*	*	*	*Xij
!	!	!	!	!	!	!	!	!	!	!	!LO:LB:g=original	!
=56-	=56-	=56-	=56-	=56-	=56-	=56-	=56-	=56-	=56-	=56-	=56-	=56-
!	!	!	!	!	!	!	!	!	!	!	!	!LO:SIC:o=Sal-
2BB-/	.	.	2BB-/	.	.	2d/	2d/	2f/	2b-\	.	8f/	sal-
.	.	.	.	.	.	.	.	.	.	.	8g/	-va-
.	.	.	.	.	.	.	.	.	.	.	8a-\	-to-
.	.	.	.	.	.	.	.	.	.	.	8f/	-ris
!LO:TX:t=P:problem=kreska pseudotaktowa	!	!	!LO:TX:t=P:problem=kreska pseudotaktowa	!	!	!	!	!	!	!	!	!LO:SIC:o=Sal-
[2AA-/	7	.	[2AA-/	.	.	1c/	1e-/	1c/	2cc\	.	8g/	sal-
.	.	.	.	.	.	.	.	.	.	.	8f/	-va-
.	.	.	.	.	.	.	.	.	.	.	8a-\	-to-
.	.	.	.	.	.	.	.	.	.	.	8g/	-ris
=57-	=57-	=57-	=57-	=57-	=57-	=57-	=57-	=57-	=57-	=57-	=57-	=57-
4AA-/]	6 5	.	4AA-/]	.	.	.	.	.	1f	.	1f	me-
!LO:N:acc=#	!	!	!LO:N:acc=#	!	!	!	!	!	!	!	!	!
4AAn/	.	.	4AAn/	.	.	.	.	.	.	.	.	.
!	!	!	!	!	!	!	!	!LO:TX:t=P:problem=kreska pseudotaktowa	!	!	!	!
2BB-/	.	.	2BB-/	.	.	2B-/	2d/	2d/	.	.	.	.
!	!	!	!	!	!	!	!	!LO:LB:g=original	!	!	!	!LO:SIC:o==58-
=58-	=58-	=58-	=58-	=58-	=58-	=58-	=58-	=58-	=58-	=58-	=58-	-i.
!LO:TX:t=P:problem=kreska pseudotaktowa	!	!	!LO:TX:t=P:problem=kreska pseudotaktowa	!	!	!	!	!	!	!	!	!
1EE-	.	.	1EE-	.	.	1B-	1e-	1B-	1g	.	1e-	-i
!LO:LB:g=original	!	!	!	!	!	!	!LO:LB:g=original	!	!	!	!	!
=59||	=59||	=59||	=59||	=59||	=59||	=59||	=59||	=59||	=59||	=59||	=59||	=59||
*M3/2	*	*	*M3/2	*	*	*M3/2	*M3/2	*M3/2	*M3/2	*	*M3/2	*
!!LO:TX:a:B:t= :mod=Allegro
!	!	!	!	!	!	!LO:TX:a:mod= :t=2	!	!LO:N:vis=0	!LO:N:vis=0	!	!	!
!	!	!	!	!	!	!LO:N:vis=0	!LO:N:vis=0	!	!	!	!	!
1.E-	.	.	1.E-	.	.	0.r	0.r	0.r	0.r	.	2r	.
.	.	.	.	.	.	.	.	.	.	.	2r	.
!	!	!	!	!	!	!	!	!	!	!	!LO:TX:t=P:problem=kreska pseudotaktowa	!
!	!	!	!	!	!	!	!	!	!	!	!LO:TX:b:i:mod= :t=allegro	!LO:SIC:o=&
.	.	.	.	.	.	.	.	.	.	.	2e-/	Et
=60-	=60-	=60-	=60-	=60-	=60-	=60-	=60-	=60-	=60-	=60-	=60-	=60-
1.Dny	6	.	1.Dny	6	.	.	.	.	.	.	2.f/	vi-
.	.	.	.	.	.	.	.	.	.	.	4e-/	-ve-
.	.	.	.	.	.	.	.	.	.	.	2d/	-re
=61-	=61-	=61-	=61-	=61-	=61-	=61-	=61-	=61-	=61-	=61-	=61-	=61-
1E-	.	.	1E-	.	.	2r	2r	2r	2r	.	2.g/	vi-
.	.	.	.	.	.	2r	2r	2r	2r	.	.	.
!	!	!	!	!	!	!	!	!	!	!	!	!LO:SIC:o=-ce-
.	.	.	.	.	.	.	.	.	.	.	4g/	-ve-
!LO:TX:t=P:problem=kreska pseudotaktowa	!	!	!	!	!	!	!	!	!LO:TX:t=P:problem=kreska pseudotaktowa	!	!	!
!	!	!	!LO:TX:t=P:problem=kreska pseudotaktowa	!	!	!LO:TX:t=P:problem=kreska pseudotaktowa	!LO:TX:t=P:problem=kreska pseudotaktowa	!LO:TX:t=P:problem=kreska pseudotaktowa	!LO:TX:b:i:mod= :t=allegro.	!	!	!
2BB-/	.	.	2BB-/	.	.	2B-/	2d/	2d/	2f/	.	2f/	-re
=62-	=62-	=62-	=62-	=62-	=62-	=62-	=62-	=62-	=62-	=62-	=62-	=62-
1E-	.	.	1E-	.	.	2.B-/	2.B-/	2.e-/	2.g/	.	2e-/	vo-
.	.	.	.	.	.	.	.	.	.	.	2e-/	-lo
.	.	.	.	.	.	4B-/	4B-/	4e-/	4f/	.	.	.
!	!	!	!	!	!	!	!	!LO:TX:t=P:problem=kreska pseudotaktowa	!	!	!LO:TX:t=P:problem=kreska pseudotaktowa	!
2C/	.	.	2C/	.	.	2c/	2e-/	2e-/	2e-/	.	2r	.
!	!	!	!	!	!	!	!	!	!LO:LB:g=original	!	!LO:LB:g=original	!
=63-	=63-	=63-	=63-	=63-	=63-	=63-	=63-	=63-	=63-	=63-	=63-	=63-
1FF	.	.	1FF	.	.	2.c/	2.c/	2.f/	2.a-\	.	2r	.
.	.	.	.	.	.	.	.	.	.	.	2r	.
.	.	.	.	.	.	4c/	4c/	4f/	4a-\	.	.	.
!LO:TX:t=P:problem=kreska pseudotaktowa	!	!	!LO:TX:t=P:problem=kreska pseudotaktowa	!	!	!	!	!LO:N:acc=#	!	!	!LO:TX:t=P:problem=kreska pseudotaktowa	!
2C/	#	.	2C/	.	.	2c/	2c/	2en/	2g/	.	2g/	et
=64-	=64-	=64-	=64-	=64-	=64-	=64-	=64-	=64-	=64-	=64-	=64-	=64-
1F	.	.	1F	.	.	2c/	2A-/	2f/	2f/	.	2.a-\	vi-
.	.	.	.	.	.	2c/	2A-/	2f/	2f/	.	.	.
.	.	.	.	.	.	.	.	.	.	.	4g/	-ve-
2D-X/	.	.	2D-X/	.	.	2r	2r	2r	2r	.	2f/	-re
=65-	=65-	=65-	=65-	=65-	=65-	=65-	=65-	=65-	=65-	=65-	=65-	=65-
!	!	!	!	!	!	!	!LO:N:vis=0	!LO:N:vis=0	!LO:N:vis=0	!	!	!
1BB-	-	.	1BB-	.	.	0.r	0.r	0.r	0.r	.	2.b-\	vi-
.	.	.	.	.	.	.	.	.	.	.	4a-\	-ve-
!LO:TX:t=P:problem=kreska pseudotaktowa	!	!	!LO:TX:t=P:problem=kreska pseudotaktowa	!	!	!	!	!	!	!	!	!
2E-\	.	.	2E-\	.	.	.	.	.	.	.	2g/	-re
=66-	=66-	=66-	=66-	=66-	=66-	=66-	=66-	=66-	=66-	=66-	=66-	=66-
2C/	.	.	2C/	.	.	.	.	.	.	.	2.cc\	vi-
2D-X/	.	.	2D-X/	.	.	.	.	.	.	.	.	.
.	.	.	.	.	.	.	.	.	.	.	4cc\	-ve-
!	!	!	!	!	!	!	!	!	!	!	!LO:TX:t=P:problem=kreska pseudotaktowa	!
2E-\	.	.	2E-\	.	.	.	.	.	.	.	2b-\	-re
=67-	=67-	=67-	=67-	=67-	=67-	=67-	=67-	=67-	=67-	=67-	=67-	=67-
1AA-y	.	.	1AA-y	.	.	2r	2r	2r	2r	.	2a-\	vo-
.	.	.	.	.	.	2r	2r	2r	2r	.	2a-\	-lo
*	*	*	*	*	*	*	*2\right	*	*	*	*	*
!LO:TX:t=P:problem=kreska pseudotaktowa	!	!	!LO:TX:t=P:problem=kreska pseudotaktowa	!	!	!LO:TX:t=P:problem=kreska pseudotaktowa	!	!LO:TX:t=P:problem=kreska pseudotaktowa	!LO:TX:t=P:problem=kreska pseudotaktowa	!	!	!
2A-\	.	.	2A-\	.	.	2c/	2a-\	2c/	2a-\	.	2r	.
*	*	*	*custos:G	*	*	*	*	*	*	*	*	*
!	!	!	!LO:LB:g=original	!	!	!	!	!	!	!	!	!
=68-	=68-	=68-	=68-	=68-	=68-	=68-	=68-	=68-	=68-	=68-	=68-	=68-
!	!	!	!	!	!	!	!	!	!	!	!LO:TX:a:mod= :t=3	!
1.G	6	.	1.G	.	.	1e-	2.e-/	2.g/	2.b-\	.	0.r	.
.	.	.	.	.	.	.	4f/	4a-\	4a-\	.	.	.
.	.	.	.	.	.	2e-/	2g/	2b-\	2g/	.	.	.
!LO:LB:g=original	!	!	!	!	!	!	!	!	!	!	!	!
=69-	=69-	=69-	=69-	=69-	=69-	=69-	=69-	=69-	=69-	=69-	=69-	=69-
1.A-	.	.	1.A-	.	.	2.e-/	2.c/	2.a-\	2.cc\	.	.	.
!	!	!	!	!	!	!LO:SIC:v:o=4d/	!LO:SIC:v:o=4d/	!	!	!	!	!
.	.	.	.	.	.	4d-	4d-	4b-\	4b-\	.	.	.
.	.	.	.	.	.	2c/	2e-/	2cc\	2a-\	.	.	.
=70-	=70-	=70-	=70-	=70-	=70-	=70-	=70-	=70-	=70-	=70-	=70-	=70-
!	!	!	!	!	!	!	!	!	!	!	!LO:N:vis=1	!
1B-	-	.	1B-	.	.	1f	2.B-/	2.b-\	2.dd-X\	.	1.r	.
.	.	.	.	.	.	.	4B-/	4b-\	4dd-\	.	.	.
!	!	!	!	!	!	!	!	!LO:TX:t=P:problem=kreska pseudotaktowa	!	!	!	!
!LO:TX:t=P:problem=kreska pseudotaktowa	!	!	!LO:TX:t=P:problem=kreska pseudotaktowa	!	!	!	!LO:TX:t=P:problem=kreska pseudotaktowa	!LO:N:acc=#	!	!	!	!
2F\	#	.	2F\	.	.	2f/	2c/	2an\	2cc\	.	.	.
!	!	!	!	!	!	!	!LO:LB:g=original	!LO:LB:g=original	!	!	!	!
=71-	=71-	=71-	=71-	=71-	=71-	=71-	=71-	=71-	=71-	=71-	=71-	=71-
1BB-	.	.	1BB-	.	.	2f/	2d/	2b-\	2b-\	.	2r	.
.	.	.	.	.	.	2f/	2d/	2b-\	2b-\	.	2r	.
!	!	!	!	!	!	!	!	!	!	!	!LO:TX:t=P:problem=kreska pseudotaktowa	!LO:SIC:o=&
2E-\	.	.	2E-\	.	.	2r	2r	2r	2r	.	2b-\	et
!	!	!	!	!	!	!LO:LB:g=original	!	!	!	!	!	!
=72-	=72-	=72-	=72-	=72-	=72-	=72-	=72-	=72-	=72-	=72-	=72-	=72-
!	!	!	!	!	!	!LO:N:vis=0	!LO:N:vis=0	!LO:N:vis=0	!LO:N:vis=0	!	!	!
1C	.	.	1C	.	.	0.r	0.r	0.r	0.r	.	2.cc\	vi-
.	.	.	.	.	.	.	.	.	.	.	4b-\	-ve-
!	!	!	!LO:TX:t=P:problem=kreska pseudotaktowa	!	!	!	!	!	!	!	!	!
2F\	.	.	2F\	.	.	.	.	.	.	.	2a-\	-re
=73-	=73-	=73-	=73-	=73-	=73-	=73-	=73-	=73-	=73-	=73-	=73-	=73-
1D-X	.	.	1D-X	.	.	.	.	.	.	.	2.dd-X\	vi-
.	.	.	.	.	.	.	.	.	.	.	4cc\	-ve-
2E-\	.	.	2E-\	.	.	.	.	.	.	.	2b-\	-re
!	!	!	!	!	!	!	!	!	!LO:MO:null:mod=*clefG2	!	!	!
*	*	*	*	*	*	*	*	*	*null	*	*	*
!	!	!	!	!	!	!	!	!	!	!	!LO:LB:g=original	!
=74-	=74-	=74-	=74-	=74-	=74-	=74-	=74-	=74-	=74-	=74-	=74-	=74-
!	!	!	!	!	!	!	!	!	!	!	!LO:N:vis=0	!
1.BB-	-	.	1.BB-	.	.	2.B-/	2.d-X/	2.b-\	2.dd-X\	.	0.r	.
.	.	.	.	.	.	4c/	4e-/	4b-\	4cc\	.	.	.
.	.	.	.	.	.	2d-X/	2f/	2b-\	2b-\	.	.	.
=75-	=75-	=75-	=75-	=75-	=75-	=75-	=75-	=75-	=75-	=75-	=75-	=75-
1.C	5	.	1.C	.	.	2.c/	2.e-/	2.g/	2.ee-\	.	.	.
.	.	.	.	.	.	4d-X/	4f/	4g/	4dd-X\	.	.	.
.	.	.	.	.	.	2e-/	2g/	2g/	2cc\	.	.	.
!	!	!	!	!	!	!	!	!	!LO:LB:g=original	!	!	!
=76-	=76-	=76-	=76-	=76-	=76-	=76-	=76-	=76-	=76-	=76-	=76-	=76-
!LO:TX:t=P:problem=kreska pseudotaktowa	!	!	!LO:TX:t=P:problem=kreska pseudotaktowa	!	!	!LO:N:vis=0	!LO:N:vis=0	!LO:N:vis=0	!LO:N:vis=0	!	!	!
1.C	6	.	1.C	.	.	0.r	0.r	0.r	0.r	.	2.ee-\	vi-
!	!	!	!	!	!	!	!	!	!	!	!LO:SIC:v:o=4ddny\	!
.	.	.	.	.	.	.	.	.	.	.	4dd-	-ve-
.	.	.	.	.	.	.	.	.	.	.	2cc\	-re
=77-	=77-	=77-	=77-	=77-	=77-	=77-	=77-	=77-	=77-	=77-	=77-	=77-
1.D-X	5	.	1.D-X	.	.	.	.	.	.	.	2.ff\	vi-
.	.	.	.	.	.	.	.	.	.	.	4ee-\	-ve-
.	.	.	.	.	.	.	.	.	.	.	2dd-X\	-re
=78-	=78-	=78-	=78-	=78-	=78-	=78-	=78-	=78-	=78-	=78-	=78-	=78-
!	!	!	!	!	!	!	!	!	!	!	!LO:N:vis=0	!
1.D-	6	.	1.D-	.	.	2.d-X/	2.b-\	2.dd-X\	2.ff\	.	0.r	.
.	.	.	.	.	.	4e-/	4b-\	4dd-\	4ee-\	.	.	.
.	.	.	.	.	.	2f/	2b-\	2dd-\	2dd-X\	.	.	.
!	!	!	!	!	!	!	!LO:MO:null:mod=*clefG2	!	!	!	!	!
*	*	*	*	*	*	*	*null	*	*	*	*	*
=79-	=79-	=79-	=79-	=79-	=79-	=79-	=79-	=79-	=79-	=79-	=79-	=79-
1E-	-	.	1E-	.	.	2.e-/	2.ee-\	2.b-\	2.gg-X\	.	.	.
.	.	.	.	.	.	4e-/	4ee-\	4b-\	4gg-\	.	.	.
2BB-/	.	.	2BB-/	.	.	2f/	2dd\	2b-\	2ff\	.	.	.
=80-	=80-	=80-	=80-	=80-	=80-	=80-	=80-	=80-	=80-	=80-	=80-	=80-
!	!	!	!LO:TX:t=P:problem=kreska pseudotaktowa	!	!	!	!	!	!	!	!	!
1.E-	-	.	1.E-	.	.	2g-X/	2ee-\	2b-\	2ee-\	.	2r	.
.	.	.	.	.	.	2g-/	2ee-\	2b-\	2ee-\	.	2r	.
!!LO:TX:a:B:t= :mod=Adagio
!	!	!	!	!	!	!	!	!	!	!	!	!LO:SIC:o=&
.	.	.	.	.	.	2r	2r	2r	2r	.	(4e-/	et
!	!	!	!	!	!	!	!	!	!	!	!LO:TX:b:i:mod= :t=adagio	!
!	!	!	!	!	!	!	!	!	!	!	!LO:TX:t=P:problem=kreska pseudotaktowa	!
.	.	.	.	.	.	.	.	.	.	.	4f/)	.
!LO:LB:g=original	!	!	!	!	!	!	!	!	!	!	!	!
=81-	=81-	=81-	=81-	=81-	=81-	=81-	=81-	=81-	=81-	=81-	=81-	=81-
!	!	!	!	!	!	!LO:TX:a:mod= :t=17.	!LO:TX:a:mod= :t=17.	!LO:TX:a:mod= :t=17.	!	!	!	!
!	!	!	!	!	!	!LO:N:vis=00	!LO:N:vis=00	!LO:N:vis=00	!	!	!	!
1.E-	.	.	1.E-	.	.	00.r	00.r	00.r	1.r	.	(1.g-X	mo-
=82-	=82-	=82-	=82-	=82-	=82-	=82-	=82-	=82-	=82-	=82-	=82-	=82-
1.E-	.	.	1.E-	.	.	.	.	.	2r	.	1.f)	.
.	.	.	.	.	.	.	.	.	2r	.	.	.
!	!	!	!	!	!	!	!	!	!LO:MO:null:mod=*clefC3	!	!	!
*	*	*	*	*	*	*	*	*	*null	*	*	*
.	.	.	.	.	.	.	.	.	(<4e-/	.	.	.
!	!	!	!	!	!	!	!	!	!LO:TX:t=P:problem=kreska pseudotaktowa	!	!	!
.	.	.	.	.	.	.	.	.	4f/)	.	.	.
=83-	=83-	=83-	=83-	=83-	=83-	=83-	=83-	=83-	=83-	=83-	=83-	=83-
1.E-	.	.	1.E-	.	.	.	.	.	(1.g-X	.	1.e-	-ri
=84-	=84-	=84-	=84-	=84-	=84-	=84-	=84-	=84-	=84-	=84-	=84-	=84-
!	!	!	!	!	!	!	!	!	!	!	!LO:N:vis=0	!
1.E-	.	.	1.E-	.	.	.	.	.	1.f)	.	0.r	.
=85-	=85-	=85-	=85-	=85-	=85-	=85-	=85-	=85-	=85-	=85-	=85-	=85-
!	!	!	!	!	!	!LO:N:vis=00	!LO:N:vis=00	!LO:N:vis=00	!	!	!	!
1E-	.	.	1E-	.	.	00.r	00.r	00.r	1e-	.	.	.
!LO:TX:t=P:problem=kreska pseudotaktowa	!	!	!LO:TX:t=P:problem=kreska pseudotaktowa	!	!	!	!	!	!LO:TX:t=P:problem=kreska pseudotaktowa	!	!	!
2r	.	.	2r	.	.	.	.	.	2r	.	.	.
!	!	!	!LO:LB:g=original	!	!	!	!	!	!	!	!	!
=86-	=86-	=86-	=86-	=86-	=86-	=86-	=86-	=86-	=86-	=86-	=86-	=86-
2F\	7	.	2F\	.	.	.	.	.	1c	.	(2e-/	cu-
2G\	4	.	2G\	.	.	.	.	.	.	.	2.d/)	.
!	!	!	!	!	!	!	!	!	!LO:N:acc=#	!	!	!
2GG/	#	.	2GG/	.	.	.	.	.	2Bn/	.	.	.
.	.	.	.	.	.	.	.	.	.	.	4c/	-pi-
=87-	=87-	=87-	=87-	=87-	=87-	=87-	=87-	=87-	=87-	=87-	=87-	=87-
1C	.	.	1C	.	.	.	.	.	1c	.	1c	-o
!LO:TX:t=P:problem=kreska pseudotaktowa	!	!	!LO:TX:t=P:problem=kreska pseudotaktowa	!	!	!	!	!	!LO:TX:t=P:problem=kreska pseudotaktowa	!	!LO:TX:t=P:problem=kreska pseudotaktowa	!
2r	.	.	2r	.	.	.	.	.	2r	.	2r	.
=88-	=88-	=88-	=88-	=88-	=88-	=88-	=88-	=88-	=88-	=88-	=88-	=88-
!	!	!	!	!	!	!	!	!	!	!	!LO:N:acc=#	!
1GG	#	.	1GG	.	.	.	.	.	2.d/	.	2.Bn/	cu-
.	.	.	.	.	.	.	.	.	4d/	.	4B/	-pi-
2C/	.	.	2C/	.	.	.	.	.	2e-/	.	2c/	-o
!	!	!	!	!	!	!	!	!	!LO:LB:g=original	!	!	!
=89-	=89-	=89-	=89-	=89-	=89-	=89-	=89-	=89-	=89-	=89-	=89-	=89-
!	!	!	!	!	!	!LO:N:vis=00	!LO:N:vis=00	!LO:N:vis=00	!LO:N:vis=0	!	!	!
1.AA-	7	.	1.AA-	.	.	00.r	00.r	00.r	0.r	.	2r	.
.	.	.	.	.	.	.	.	.	.	.	2gny/	mo-
!	!	!	!	!	!	!	!	!	!	!	!LO:TX:t=P:problem=kreska pseudotaktowa	!
.	.	.	.	.	.	.	.	.	.	.	2f/	-ri
=90-	=90-	=90-	=90-	=90-	=90-	=90-	=90-	=90-	=90-	=90-	=90-	=90-
1BB-	.	.	1BB-	.	.	.	.	.	.	.	1f	mo-
2E-\	.	.	2E-\	.	.	.	.	.	.	.	2e-/	-ri
!	!	!	!	!	!	!	!	!	!	!	!LO:LB:g=original	!
=91-	=91-	=91-	=91-	=91-	=91-	=91-	=91-	=91-	=91-	=91-	=91-	=91-
!	!	!	!	!	!	!	!	!	!	!LO:MO:mod=!LO&colon;DY&colon;ed=brack	!	!
!	!	!	!	!	!	!	!	!	!	!null	!	!
!	!	!LO:DY:t=p.	!	!	!	!	!	!	!	!LO:MO:null:mod=p	!LO:TX:a:mod= :t=1.	!
1BB-	.	p	1BB-	.	.	.	.	.	1d	.	1.r	.
!LO:TX:t=P:problem=kreska pseudotaktowa	!	!	!LO:TX:t=P:problem=kreska pseudotaktowa	!	!	!	!	!	!	!	!	!
2E-\	.	.	2E-\	.	.	.	.	.	2e-/	.	.	.
!LO:LB:g=original	!	!	!	!	!	!	!	!	!	!	!	!
=92-	=92-	=92-	=92-	=92-	=92-	=92-	=92-	=92-	=92-	=92-	=92-	=92-
!	!	!	!	!	!	!	!	!	!LO:N:vis=0	!	!	!
2r	.	.	2r	.	.	.	.	.	0.r	.	2r	.
!	!	!LO:DY:t=f.	!	!	!	!	!	!	!	!	!	!
2F\	.	f	2F\	.	.	.	.	.	.	.	2a-\	mo-
!LO:TX:t=P:problem=kreska pseudotaktowa	!	!	!LO:TX:t=P:problem=kreska pseudotaktowa	!	!	!	!	!	!	!	!	!
2BB-/	.	.	2BB-/	.	.	.	.	.	.	.	2g/	-ri
=93-	=93-	=93-	=93-	=93-	=93-	=93-	=93-	=93-	=93-	=93-	=93-	=93-
!	!	!	!	!	!	!LO:N:vis=00	!LO:N:vis=00	!LO:N:vis=00	!	!	!	!
1C	#	.	1C	.	.	00.r	00.r	00.r	.	.	1g	mo-
2FF/	.	.	2FF/	.	.	.	.	.	.	.	2f/	-ri
=94-	=94-	=94-	=94-	=94-	=94-	=94-	=94-	=94-	=94-	=94-	=94-	=94-
!	!	!	!	!	!	!	!	!	!	!LO:MO:mod=!LO&colon;DY&colon;ed=brack	!	!
!	!	!	!	!	!	!	!	!	!	!null	!	!
!	!	!LO:DY:t=p.	!	!	!LO:DY:t=p&colon;	!	!	!	!LO:N:acc=#	!LO:MO:null:mod=p	!	!
1C	#	p	1C	.	p	.	.	.	1en	.	1.r	.
2FF/	.	.	2FF/	.	.	.	.	.	2f/	.	.	.
=95-	=95-	=95-	=95-	=95-	=95-	=95-	=95-	=95-	=95-	=95-	=95-	=95-
!	!	!	!	!	!	!	!	!	!LO:N:vis=0	!	!	!
2r	.	.	2r	.	.	.	.	.	0.r	.	2r	.
2r	.	.	2r	.	.	.	.	.	.	.	2r	.
!!LO:TX:a:B:t= :mod=Allegro
!	!	!	!	!	!	!	!	!	!	!	!LO:TX:b:i:mod= :t=allegro	!
!LO:TX:t=P:problem=kreska pseudotaktowa	!	!LO:DY:t=f.	!LO:TX:t=P:problem=kreska pseudotaktowa	!	!	!	!	!	!	!	!LO:TX:t=P:problem=kreska pseudotaktowa	!LO:SIC:o=&
2C/	.	f	2C/	.	.	.	.	.	.	.	2g/	et
=96-	=96-	=96-	=96-	=96-	=96-	=96-	=96-	=96-	=96-	=96-	=96-	=96-
1.F	.	.	1.F	.	.	.	.	.	.	.	2.a-\	vi-
.	.	.	.	.	.	.	.	.	.	.	4g/	-ve-
.	.	.	.	.	.	.	.	.	.	.	2f/	-re
=97-	=97-	=97-	=97-	=97-	=97-	=97-	=97-	=97-	=97-	=97-	=97-	=97-
!	!	!	!	!	!	!LO:N:vis=1	!	!	!	!	!	!
1.G	.	.	1.G	.	.	1.r	1.r	1.r	1.r	.	2.b-\	vi-
.	.	.	.	.	.	.	.	.	.	.	4a-\	-ve-
.	.	.	.	.	.	.	.	.	.	.	2g/	-re
!	!	!	!	!	!	!	!LO:MO:null:mod=*clefC3	!	!	!	!	!
*	*	*	*	*	*	*	*null	*	*	*	*	*
!	!	!	!	!	!	!	!	!LO:LB:g=original	!	!	!	!
=98-	=98-	=98-	=98-	=98-	=98-	=98-	=98-	=98-	=98-	=98-	=98-	=98-
!	!	!	!	!	!	!	!	!	!	!	!LO:N:vis=0	!
1.A-	.	.	1.A-	.	.	2.e-/	2.a-\	2.a-y\	2.cc\	.	0.r	.
.	.	.	.	.	.	4e-/	4a-\	4b-\	4b-\	.	.	.
.	.	.	.	.	.	2e-/	2a-\	2cc\	2a-\	.	.	.
!	!	!	!	!	!	!LO:LB:g=original	!LO:LB:g=original	!	!	!	!	!
=99-	=99-	=99-	=99-	=99-	=99-	=99-	=99-	=99-	=99-	=99-	=99-	=99-
1B-	-	.	1B-	.	.	2.d-X/	2.f/	2.b-\	2.dd-X\	.	.	.
.	.	.	.	.	.	4e-/	4f/	4b-\	4dd-\	.	.	.
!	!	!	!LO:TX:t=P:problem=kreska pseudotaktowa	!	!	!	!	!LO:N:acc=#	!	!	!	!
2F\	#	.	2F\	.	.	2f/	2f/	2an\	2cc\	.	.	.
=100-	=100-	=100-	=100-	=100-	=100-	=100-	=100-	=100-	=100-	=100-	=100-	=100-
1.BB-	-	.	1.BB-	.	.	2d-X/	2f/	2b-\	2b-\	.	2r	.
.	.	.	.	.	.	2d-/	2f/	2b-\	2b-\	.	2r	.
!!LO:TX:a:B:t= :mod=Adagio
.	.	.	.	.	.	2r	2r	2r	2r	.	(4b-\	et
!	!	!	!	!	!	!	!	!	!	!	!LO:TX:b:i:mod= :t=adagio	!
!	!	!	!	!	!	!	!	!	!	!	!LO:TX:t=P:problem=kreska pseudotaktowa	!
.	.	.	.	.	.	.	.	.	.	.	4cc\)	.
=101-	=101-	=101-	=101-	=101-	=101-	=101-	=101-	=101-	=101-	=101-	=101-	=101-
!	!	!	!	!	!	!	!LO:TX:a:mod= :t=24.	!LO:TX:a:mod= :t=24	!	!	!	!
!	!	!	!	!	!	!LO:TX:a:mod= :t=24.	!LO:N:vis=00	!LO:N:vis=00	!	!	!	!
1.BB-	-	.	1.BB-	.	.	00.r	00.r	00.r	1.r	.	(1.dd-X	mo-
=102-	=102-	=102-	=102-	=102-	=102-	=102-	=102-	=102-	=102-	=102-	=102-	=102-
1.BB-	-	.	1.BB-	.	.	.	.	.	2r	.	1.cc)	.
.	.	.	.	.	.	.	.	.	2r	.	.	.
!	!	!	!	!	!	!	!	!	!LO:SIC:o=4b-\	!	!	!
.	.	.	.	.	.	.	.	.	(4b-	.	.	.
!	!	!	!	!	!	!	!	!	!LO:SIC:o=4cc\	!	!	!
!	!	!	!	!	!	!	!	!	!LO:TX:t=P:problem=kreska pseudotaktowa	!	!	!
.	.	.	.	.	.	.	.	.	4cc)	.	.	.
*	*	*	*custos:BB-	*	*	*	*	*	*	*	*	*
!	!	!	!LO:LB:g=original	!	!	!	!	!	!	!	!	!
=103-	=103-	=103-	=103-	=103-	=103-	=103-	=103-	=103-	=103-	=103-	=103-	=103-
!	!	!	!	!	!	!	!	!	!LO:SIC:o=1.dd-X	!	!	!
1.BB-	.	.	1.BB-	.	.	.	.	.	(1.dd-	.	1b-	-ri
.	.	.	.	.	.	.	.	.	.	.	2r	.
=104-	=104-	=104-	=104-	=104-	=104-	=104-	=104-	=104-	=104-	=104-	=104-	=104-
!	!	!	!	!	!	!	!	!	!LO:SIC:o=1.cc	!	!LO:N:vis=0	!
1.BB-	.	.	1.BB-	.	.	.	.	.	1.cc)	.	0.r	.
=105-	=105-	=105-	=105-	=105-	=105-	=105-	=105-	=105-	=105-	=105-	=105-	=105-
!	!	!	!	!	!	!	!LO:N:vis=00	!LO:N:vis=00	!	!	!	!
1BB-	.	.	1BB-	.	.	00.r	00.r	00.r	1b-	.	.	.
!	!	!	!LO:TX:t=P:problem=kreska pseudotaktowa	!	!	!	!	!	!	!	!	!
2r	.	.	2r	.	.	.	.	.	2r	.	.	.
*custos:C	*	*	*	*	*	*	*	*	*	*	*	*
!LO:PB:g=original	!	!	!	!	!	!	!	!	!	!	!	!
=106-	=106-	=106-	=106-	=106-	=106-	=106-	=106-	=106-	=106-	=106-	=106-	=106-
2C/	7	.	2C/	.	.	.	.	.	1.r	.	(2b-\	cu-
!	!	!	!	!	!	!	!	!	!	!	!LO:N:acc=#	!
2Dny/	4	.	2Dny/	.	.	.	.	.	.	.	2.an\)	.
!LO:TX:t=P:problem=kreska pseudotaktowa	!	!	!LO:TX:t=P:problem=kreska pseudotaktowa	!	!	!	!	!	!	!	!	!
2DD/	#	.	2DD/	.	.	.	.	.	.	.	.	.
.	.	.	.	.	.	.	.	.	.	.	4g/	-pi-
=107-	=107-	=107-	=107-	=107-	=107-	=107-	=107-	=107-	=107-	=107-	=107-	=107-
2GG/	.	.	2GG/	.	.	.	.	.	2r	.	1g	-o
!LO:N:acc=#	!	!	!LO:N:acc=#	!	!	!	!	!	!	!	!	!
2AAn/	.	.	2AAn/	.	.	.	.	.	2r	.	.	.
!LO:TX:t=P:problem=kreska pseudotaktowa	!	!	!LO:TX:t=P:problem=kreska pseudotaktowa	!	!	!	!	!	!LO:TX:t=P:problem=kreska pseudotaktowa	!	!	!
2BB-/	.	.	2BB-/	.	.	.	.	.	2b-\	.	2r	.
!	!	!	!	!	!	!	!	!	!LO:LB:g=original	!	!LO:LB:g=original	!
=108-	=108-	=108-	=108-	=108-	=108-	=108-	=108-	=108-	=108-	=108-	=108-	=108-
!	!	!	!	!	!	!	!	!	!LO:N:acc=#	!	!	!
2C/	.	.	2C/	.	.	.	.	.	2.an\	.	1.r	.
2D/	#	.	2D/	.	.	.	.	.	.	.	.	.
.	.	.	.	.	.	.	.	.	4a\	.	.	.
2GG/	.	.	2GG/	.	.	.	.	.	2gny/	.	.	.
=109-	=109-	=109-	=109-	=109-	=109-	=109-	=109-	=109-	=109-	=109-	=109-	=109-
!	!	!	!	!	!	!LO:N:vis=00	!LO:N:vis=00	!LO:N:vis=00	!	!	!	!
!	!	!	!	!	!	!LO:MO:mod=1.r	!LO:MO:mod=1.r	!LO:MO:mod=1.r	!	!	!	!
1D	#	.	1D	.	.	00.r	00.r	00.r	1.r	.	2.f#X/	cu-
.	.	.	.	.	.	.	.	.	.	.	4f#/	-pi-
!	!	!	!LO:TX:t=P:problem=kreska pseudotaktowa	!	!	!	!	!	!	!	!	!
2GG/	.	.	2GG/	.	.	.	.	.	.	.	2g/	-o
=110-	=110-	=110-	=110-	=110-	=110-	=110-	=110-	=110-	=110-	=110-	=110-	=110-
!	!	!	!	!	!	!LO:MO:null:mod=1.r	!LO:MO:null:mod=1.r	!LO:MO:null:mod=1.r	!	!	!	!
1DD	#	.	1DD	.	.	.	.	.	2.f#X/	.	1.r	.
.	.	.	.	.	.	.	.	.	4f#/	.	.	.
!LO:TX:t=P:problem=kreska pseudotaktowa	!	!	!LO:TX:t=P:problem=kreska pseudotaktowa	!	!	!	!	!	!	!	!	!
2GG/	.	.	2GG/	.	.	.	.	.	2g/	.	.	.
!!LO:MO:ori
=111-	=111-	=111-	=111-	=111-	=111-	=111-	=111-	=111-	=111-	=111-	=111-	=111-
!LO:TX:t=P:problem=zbędny takt w vlne	!	!	!LO:TX:t=P:problem=zbędny takt	!	!	!LO:TX:t=P:problem=zbędny takt w vlne	!LO:TX:t=P:problem=zbędny takt w vlne	!LO:TX:t=P:problem=zbędny takt w vlne	!LO:TX:t=P:problem=zbędny takt w vlne	!	!LO:TX:t=P:problem=zbędny takt w vlne	!LO:TX:t=P:problem=zbędny takt w vlne
1.ryy	.	.	1FF	.	.	.	.	.	1.ryy	.	1.ryy	1.ryy
!	!	!	!LO:TX:t=P:problem=kreska pseudotaktowa	!	!	!	!	!	!	!	!	!
.	.	.	2GG/	.	.	.	.	.	.	.	.	.
!!LO:MO:end
=112-	=112-	=112-	=112-	=112-	=112-	=112-	=112-	=112-	=112-	=112-	=112-	=112-
!	!	!	!	!	!	!LO:MO:null:mod=1.r	!LO:MO:null:mod=1.r	!LO:MO:null:mod=1.r	!LO:TX:a:mod= :t=1.	!	!LO:N:acc=#	!
1FF	#	.	1FF	.	.	.	.	.	1.r	.	2.an\	cu-
.	.	.	.	.	.	.	.	.	.	.	4a\	-pi-
!	!	!	!LO:TX:t=P:problem=kreska pseudotaktowa	!	!	!	!	!	!	!	!	!
2BB-/	.	.	2BB-/	.	.	.	.	.	.	.	2b-\	-o
=113-	=113-	=113-	=113-	=113-	=113-	=113-	=113-	=113-	=113-	=113-	=113-	=113-
!LO:N:acc=#	!	!	!LO:N:acc=#	!	!	!LO:TX:t=P:problem=uzupełnienie pauz (t. nr 111)	!LO:TX:t=P:problem=uzupełnienie pauz (t. nr 111)	!LO:TX:t=P:problem=uzupełnienie pauz (t. nr 111)	!LO:N:acc=#	!	!	!
1AAn	6	.	1AAn	.	.	1.ryy	1.ryy	1.ryy	2.an\	.	2.cc\	cu-
.	.	.	.	.	.	.	.	.	4a\	.	4cc\	-pi-
2BB-/	.	.	2BB-/	.	.	.	.	.	2ddny\	.	2b-\	-o
=114-	=114-	=114-	=114-	=114-	=114-	=114-	=114-	=114-	=114-	=114-	=114-	=114-
!	!	!	!	!	!	!	!LO:N:vis=00	!LO:N:vis=00	!	!	!	!
1FF	#	.	1FF	.	.	00.r	00.r	00.r	2.cc\	.	1.r	.
.	.	.	.	.	.	.	.	.	4cc\	.	.	.
!	!	!	!LO:TX:t=P:problem=kreska pseudotaktowa	!	!	!	!	!	!	!	!	!
!LO:TX:t=P:problem=kreska pseudotaktowa	!	!	!	!	!	!	!	!	!LO:TX:t=P:problem=kreska pseudotaktowa	!	!	!
2BB-/	.	.	2BB-/	.	.	.	.	.	2b-\	.	.	.
*	*	*	*custos:D	*	*	*	*	*	*	*	*	*
!LO:LB:g=original	!	!	!LO:LB:g=original	!	!	!	!	!	!	!	!	!
=115-	=115-	=115-	=115-	=115-	=115-	=115-	=115-	=115-	=115-	=115-	=115-	=115-
!	!	!	!	!	!	!	!	!	!LO:N:vis=0	!	!	!
1D	6	.	1D	.	.	.	.	.	0.r	.	2r	.
.	.	.	.	.	.	.	.	.	.	.	2ddny\	mo-
!	!	!	!	!	!	!	!	!	!	!	!LO:TX:t=P:problem=kreska pseudotaktowa	!
2E-\	.	.	2E-\	.	.	.	.	.	.	.	2cc\	-ri
=116-	=116-	=116-	=116-	=116-	=116-	=116-	=116-	=116-	=116-	=116-	=116-	=116-
1F	#	.	1F	.	.	.	.	.	.	.	1cc	mo-
2BB-/	.	.	2BB-/	.	.	.	.	.	.	.	2b-\	-ri
=117-	=117-	=117-	=117-	=117-	=117-	=117-	=117-	=117-	=117-	=117-	=117-	=117-
!	!	!	!	!	!	!	!	!	!	!LO:MO:mod=!LO&colon;DY&colon;ed=brack	!	!
!	!	!	!	!	!	!	!	!	!	!null	!	!
!	!	!LO:DY:t=p.	!	!	!	!	!	!	!LO:N:acc=#	!LO:MO:null:mod=p	!	!
1FF	#	p	1FF	.	p	.	.	.	1an	.	1.r	.
!LO:TX:t=P:problem=kreska pseudotaktowa	!	!	!LO:TX:t=P:problem=kreska pseudotaktowa	!	!	!	!	!	!	!	!	!
2BB-/	.	.	2BB-/	.	.	.	.	.	2b-\	.	.	.
=118-	=118-	=118-	=118-	=118-	=118-	=118-	=118-	=118-	=118-	=118-	=118-	=118-
!	!	!	!	!	!	!	!LO:N:vis=00	!LO:N:vis=00	!LO:N:vis=0	!	!	!
2r	.	.	2r	.	.	00.r	00.r	00.r	0.r	.	2r	.
!	!	!LO:DY:t=f.	!	!	!	!	!	!	!	!	!LO:N:acc=#	!
2F\	#	f	2F\	.	f	.	.	.	.	.	2an\	mo-
!LO:TX:t=P:problem=kreska pseudotaktowa	!	!	!LO:TX:t=P:problem=kreska pseudotaktowa	!	!	!	!	!	!	!	!	!
2BB-/	.	.	2BB-/	.	.	.	.	.	.	.	2g/	-ri
=119-	=119-	=119-	=119-	=119-	=119-	=119-	=119-	=119-	=119-	=119-	=119-	=119-
1C	#	.	1C	.	.	.	.	.	.	.	1g	mo-
2FF/	#	.	2FF/	.	.	.	.	.	.	.	2fny/	-ri
=120-	=120-	=120-	=120-	=120-	=120-	=120-	=120-	=120-	=120-	=120-	=120-	=120-
!	!	!	!LO:TX:t=P:problem=kreska pseudotaktowa	!	!	!	!	!	!LO:N:acc=#	!	!	!
1C	#	.	1.C	.	.	.	.	.	1en	.	1.r	.
!LO:TX:t=P:problem=kreska pseudotaktowa	!	!	!	!	!	!	!	!	!LO:TX:t=P:problem=kreska pseudotaktowa	!	!	!
2FF	#	.	.	.	.	.	.	.	2fny/	.	.	.
=121-	=121-	=121-	=121-	=121-	=121-	=121-	=121-	=121-	=121-	=121-	=121-	=121-
!	!	!	!	!	!	!	!	!	!LO:N:vis=0	!	!	!
2r	.	.	2r	.	.	.	.	.	0.r	.	2r	.
!LO:N:acc=#	!	!	!LO:N:acc=#	!	!	!	!	!	!	!	!	!
1AAn	6\	.	1AAn	.	.	.	.	.	.	.	2f/	mo-
.	5	.	.	.	.	.	.	.	.	.	2e-/	-ri
=122-	=122-	=122-	=122-	=122-	=122-	=122-	=122-	=122-	=122-	=122-	=122-	=122-
!	!	!	!	!	!	!	!LO:N:vis=00	!LO:N:vis=00	!	!	!	!
1BB-	.	.	1BB-	.	.	00.r	00.r	00.r	.	.	1d	mo-
!	!	!	!LO:TX:t=P:problem=kreska pseudotaktowa	!	!	!	!	!	!	!	!	!LO:SIC:o=-ri
2E-\	.	.	2E-\	.	.	.	.	.	.	.	2e-/	-ri.
!	!	!	!	!	!	!	!	!	!	!	!LO:LB:g=original	!
=123-	=123-	=123-	=123-	=123-	=123-	=123-	=123-	=123-	=123-	=123-	=123-	=123-
!	!	!	!	!	!	!	!	!	!	!	!LO:N:vis=0	!
1D	6	.	1D	.	.	.	.	.	1f	.	0.r	.
2E-\	.	.	2E-\	.	.	.	.	.	2e-y/	.	.	.
=124-	=124-	=124-	=124-	=124-	=124-	=124-	=124-	=124-	=124-	=124-	=124-	=124-
!	!	!	!	!	!	!	!	!	!LO:N:vis=0	!	!	!
1BB-	.	.	1BB-	.	.	.	.	.	0.r	.	.	.
2EE-/	.	.	2EE-/	.	.	.	.	.	.	.	.	.
=125-	=125-	=125-	=125-	=125-	=125-	=125-	=125-	=125-	=125-	=125-	=125-	=125-
!	!	!	!LO:TX:t=P:problem=kreska pseudotaktowa	!	!	!	!	!	!	!	!	!
!LO:TX:a:mod= :t=1.	!	!	!LO:TX:a:mod= :t=1.	!	!	!	!	!	!	!	!	!
1.r	.	.	1.r	.	.	.	.	.	.	.	1.r	.
!LO:LB:g=original	!	!	!	!	!	!	!	!	!LO:LB:g=original	!	!	!
!LO:MO:mod==126||	!LO:MO:mod==126||	!LO:MO:mod==126||	!LO:MO:mod==126||	!LO:MO:mod==126||	!LO:MO:mod==126||	!LO:MO:mod==126||	!LO:MO:mod==126||	!LO:MO:mod==126||	!LO:MO:mod==126||	!LO:MO:mod==126||	!LO:MO:mod==126||	!LO:MO:mod==126||
=126-	=126-	=126-	=126-	=126-	=126-	=126-	=126-	=126-	=126-	=126-	=126-	=126-
*M4/4	*	*	*M4/4	*	*	*M4/4	*M4/4	*M4/4	*M4/4	*	*M4/4	*
*met(c)	*	*	*met(c|)	*	*	*met(c)	*met(c)	*met(c)	*met(c)	*	*met(c)	*
*mmet(c)	*	*	*mmet(c)	*	*	*mmet(c)	*mmet(c)	*mmet(c)	*mmet(c)	*	*mmet(c)	*
2C/	.	.	2C/	.	.	4r	4r	4r	4r	.	4r	.
.	.	.	.	.	.	2e-/	2c/	4e-y/	4g/	.	2e-/	In-
2AA-y/	5	.	2AA-/	.	.	.	.	4c/	2a-y\	.	.	.
!	!	!	!	!	!	!LO:TX:t=P:problem=kreska pseudotaktowa	!	!LO:TX:t=P:problem=kreska pseudotaktowa	!	!	!	!
.	6	.	.	.	.	4c/	4c/	4f/	.	.	4f/	-ter
=127-	=127-	=127-	=127-	=127-	=127-	=127-	=127-	=127-	=127-	=127-	=127-	=127-
2GG/	.	.	2GG/	.	.	4.B-/	4.dny/	4d/	4.b-\	.	4.g/	bra-
.	.	.	.	.	.	.	.	4g/	.	.	.	.
.	.	.	.	.	.	8B-/	8d/	.	8b-\	.	8g/	-chi-
!	!	!	!LO:TX:t=P:problem=kreska pseudotaktowa	!	!	!	!LO:TX:t=P:problem=kreska pseudotaktowa	!LO:TX:t=P:problem=kreska pseudotaktowa	!	!	!LO:TX:t=P:problem=kreska pseudotaktowa	!
2C/	.	.	2C/	.	.	4e-/	2e-/	2g/	2cc\	.	2g/	-a
!	!	!	!	!	!	!LO:TX:t=P:problem=kreska pseudotaktowa	!	!	!	!	!	!
.	.	.	.	.	.	4c/	.	.	.	.	.	.
*	*	*	*custos:FF	*	*	*	*	*	*	*	*	*
!	!	!	!LO:LB:g=original	!	!	!	!	!LO:LB:g=original	!	!	!	!
=128-	=128-	=128-	=128-	=128-	=128-	=128-	=128-	=128-	=128-	=128-	=128-	=128-
!	!	!	!	!	!	!	!	!	!	!	!	!LO:SIC:o=Sal-
2FF/	.	.	2FF/	.	.	4.c/	4f/	2f/	2a-\	.	8a-y\	sal-
.	.	.	.	.	.	.	.	.	.	.	8g/	-va-
.	.	.	.	.	.	.	4e-/	.	.	.	8g/	-to-
.	.	.	.	.	.	8c/	.	.	.	.	8f/	-ris
!	!	!	!LO:TX:t=P:problem=kreska pseudotaktowa	!	!	!	!	!	!LO:TX:t=P:problem=kreska pseudotaktowa	!	!	!
2BB-/	.	.	2BB-/	.	.	4d/	4d/	2f/	2b-\	.	4f/	me-
!	!	!	!	!	!	!LO:TX:t=P:problem=kreska pseudotaktowa	!	!	!	!	!LO:TX:t=P:problem=kreska pseudotaktowa	!
.	.	.	.	.	.	4B-/	4d/	.	.	.	4f/	-i
=129-	=129-	=129-	=129-	=129-	=129-	=129-	=129-	=129-	=129-	=129-	=129-	=129-
!LO:N:acc=#	!	!	!LO:N:acc=#	!	!	!LO:LB:g=original	!	!	!	!	!	!
2AAn/	6	.	2AAn/	.	.	4r	4r	4r	4r	.	4r	.
!	!	!	!	!	!	!	!	!	!LO:MO:null:mod=*clefG2	!	!	!
*	*	*	*	*	*	*	*	*	*null	*	*	*
!	!	!	!	!	!	!	!LO:N:acc=#	!	!	!	!	!LO:SIC:o=&
.	.	.	.	.	.	4f/	4an\	4cc\	4ff\	.	4cc\	et
4BB-/	.	.	4BB-/	.	.	8.f/L	8.d/L	8.b-\L	8.dd\L	.	8.dd\	vi-
.	.	.	.	.	.	16f/Jk	16d/Jk	16b-\Jk	16dd\Jk	.	16cc\	-ve-
!	!	!	!LO:TX:t=P:problem=kreska pseudotaktowa	!	!	!LO:TX:t=P:problem=kreska pseudotaktowa	!LO:TX:t=P:problem=kreska pseudotaktowa	!LO:TX:t=P:problem=kreska pseudotaktowa	!LO:TX:t=P:problem=kreska pseudotaktowa	!	!LO:TX:t=P:problem=kreska pseudotaktowa	!
4E-\	.	.	4E-\	.	.	4gny/	4g/	4b-\	4ee-\	.	4b-\	-re
=130-	=130-	=130-	=130-	=130-	=130-	=130-	=130-	=130-	=130-	=130-	=130-	=130-
4C/	.	.	4C/	.	.	8.g/L	8.c/L	8.cc\L	8.ee-\L	.	8.ee-\	vi-
.	.	.	.	.	.	16g/Jk	16c/Jk	16cc\Jk	16ee-\Jk	.	16dd\	-ve-
4F\	.	.	4F\	.	.	4a-\	4c/	4cc\	4ff\	.	4cc\	-re
!LO:TX:t=P:problem=kreska pseudotaktowa	!	!	!LO:TX:t=P:problem=kreska pseudotaktowa	!	!	!	!	!	!	!	!	!
!LO:N:acc=#	!	!	!LO:N:acc=#	!	!	!	!	!	!	!	!	!
2En\	6	.	2En\	.	.	2r	2r	2r	4r	.	4r	.
!	!	!	!	!	!	!	!	!	!LO:MO:null:mod=*clefC3	!	!	!
*	*	*	*	*	*	*	*	*	*null	*	*	*
!	!	!	!	!	!	!	!	!	!LO:TX:t=P:problem=kreska pseudotaktowa	!	!LO:TX:t=P:problem=kreska pseudotaktowa	!LO:SIC:o=&
.	.	.	.	.	.	.	.	.	4g/	.	4g/	et
=131-	=131-	=131-	=131-	=131-	=131-	=131-	=131-	=131-	=131-	=131-	=131-	=131-
!	!	!	!	!	!	!	!LO:LB:g=original	!	!	!	!	!
!	!	!	!	!	!	!LO:TX:a:mod= :t=7.	!LO:TX:a:mod= :t=7.	!	!LO:SIC:o=(2g/	!	!	!
2F\	- 9	.	2F\	.	.	00r	00r	00r	2g	.	2.a-\	mo-
!	!	!	!	!	!	!	!	!	!LO:SIC:o=[>2f/)	!	!	!
!LO:TX:t=P:problem=kreska pseudotaktowa	!	!	!LO:TX:t=P:problem=kreska pseudotaktowa	!	!	!	!	!LO:TX:a:mod= :t=7	!	!	!	!
[2BB-/	7 5	.	[2BB-/	.	.	.	.	.	[2f	.	.	.
.	.	.	.	.	.	.	.	.	.	.	4a-\	-ri
=132-	=132-	=132-	=132-	=132-	=132-	=132-	=132-	=132-	=132-	=132-	=132-	=132-
!	!	!	!	!	!	!	!	!	!LO:SIC:o=2f]	!	!	!
4BB-/]	6 5	.	4BB-/]	.	.	.	.	.	2f]	.	2.g/	cu-
!LO:N:acc=#	!	!	!LO:N:acc=#	!	!	!	!	!	!	!	!	!
4BBn/	.	.	4BBn/	.	.	.	.	.	.	.	.	.
!	!	!	!	!	!	!	!	!	!LO:N:acc=#	!	!	!
4C/	#	.	4C/	.	.	.	.	.	2en/	.	.	.
!LO:TX:t=P:problem=kreska pseudotaktowa	!	!	!LO:TX:t=P:problem=kreska pseudotaktowa	!	!	!	!	!	!	!	!LO:TX:t=P:problem=kreska pseudotaktowa	!
4CC/	.	.	4CC/	.	.	.	.	.	.	.	4g/	-pi-
=133-	=133-	=133-	=133-	=133-	=133-	=133-	=133-	=133-	=133-	=133-	=133-	=133-
2FF/	#	.	2FF/	.	.	.	.	.	2f/	.	2f/	-o
!	!	!	!	!	!	!	!	!	!	!	!LO:LB:g=original	!
!LO:LB:g=original	!	!	!	!	!	!	!	!	!	!	!LO:N:acc=#	!
4C/	#	.	4C/	.	.	.	.	.	2r	.	8.en/	cu-
.	.	.	.	.	.	.	.	.	.	.	16e/	-pi-
!LO:TX:t=P:problem=kreska pseudotaktowa	!	!	!LO:TX:t=P:problem=kreska pseudotaktowa	!	!	!	!	!	!	!	!LO:TX:t=P:problem=kreska pseudotaktowa	!
4D-X/	.	.	4D-X/	.	.	.	.	.	.	.	4f/	-o
!	!	!	!	!	!	!	!	!	!LO:LB:g=original	!	!	!
=134-	=134-	=134-	=134-	=134-	=134-	=134-	=134-	=134-	=134-	=134-	=134-	=134-
!	!	!	!	!	!	!	!	!	!LO:N:acc=#	!	!	!
4C/	#	.	4C/	.	.	.	.	.	4en/	.	4g/	mo-
4FF/	#	.	4FF/	.	.	.	.	.	4f/	.	4f/	-ri
!	!	!LO:DY:t=p.	!	!	!	!	!	!	!	!	!LO:TX:t=P:problem=kreska pseudotaktowa	!
4C/	#	p	4C/	.	.	.	.	.	2r	.	2r	.
!LO:TX:t=P:problem=kreska pseudotaktowa	!	!	!LO:TX:t=P:problem=kreska pseudotaktowa	!	!	!	!	!	!	!	!	!
4FF/	#	.	4FF/	.	.	.	.	.	.	.	.	.
=135-	=135-	=135-	=135-	=135-	=135-	=135-	=135-	=135-	=135-	=135-	=135-	=135-
4BB-y/	.	.	4BB-y/	.	.	0r	0r	0r	4d/	.	4d/	mo-
4E-y\	.	.	4E-y\	.	.	.	.	.	4e-/	.	4e-y/	-ri
!	!	!	!	!	!	!	!	!	!	!	!LO:TX:t=P:problem=kreska pseudotaktowa	!
4BB-/	.	.	4BB-/	.	.	.	.	.	2r	.	2r	.
!	!	!	!LO:TX:t=P:problem=kreska pseudotaktowa	!	!	!	!	!	!	!	!	!
4E-\	.	.	4E-\	.	.	.	.	.	.	.	.	.
=136-	=136-	=136-	=136-	=136-	=136-	=136-	=136-	=136-	=136-	=136-	=136-	=136-
4Dny/	6	.	4Dny/	.	.	.	.	.	1r	.	4f/	mo-
!	!	!	!LO:TX:a:mod= :t=e	!	!	!	!	!	!	!	!	!
4E-\	.	.	4E-\	.	.	.	.	.	.	.	4e-/	-ri
4BB-/	.	.	4BB-/	.	.	.	.	.	.	.	4d/	mo-
!	!	!	!LO:TX:t=P:problem=kreska pseudotaktowa	!	!	!	!	!	!	!	!	!
4E-\	.	.	4E-\	.	.	.	.	.	.	.	4e-/	-ri.
=137-	=137-	=137-	=137-	=137-	=137-	=137-	=137-	=137-	=137-	=137-	=137-	=137-
4BB-/	.	.	4BB-/	.	.	1r	1r	1r	4f/	.	1r	.
4EE-/	.	.	4EE-/	.	.	.	.	.	4e-y/	.	.	.
2r	.	.	2r	.	.	.	.	.	2r	.	.	.
!	!	!	!LO:MO:mod===	!	!	!	!	!	!	!	!	!
==	==	==	==;;	==	==	==	==	==	==	==	==	==
*-	*-	*-	*-	*-	*-	*-	*-	*-	*-	*-	*-	*-
!!!system-decoration: [vox][(str)][klav]
!!!RDF**kern: > = above
!!!RDF**kern: < = below
!!!filter-modern: shed -k -e "s/([#-])[yX]/$1/g; s/[ny]/$1/g;" | shed -e "s/LO:N:/LO:n:$1/L; s/^custos:/Xcustos:/I; s/^(\d+[\/\\]right)/$1yy/I; s/TX(.*):t=P:/tx$1:t=P:/LG" | shed -e "s/(LO:DY.*):t=(.*$)/$1:T=$2/L" | shed -k -e "s/([^a-gA-Gn#X-])[<>]/$1/g" | sic -sq | modori -m  | humtr -p | autostem -r | tie -s | shed -e "s/-//B"
!!!filter-modern: extract -k 1,3-$
!!!ENC: Berenika Jozajtis
!!!END: 2022-04-20
!!!EED: Natalia Wrzos
!!!EEV: 2022-11-02
!!!EED2: Andrzej Kubiczek
!!!EEV2: 2023-08-22
!!!ENC-modern: Andrzej Kubiczek
!!!END-modern: 2023-08-23
